docs/local/img/sprites/word.paint.svg

<svg width="115" height="198" viewBox="0 0 115 198" xmlns="http://www.w3.org/2000/svg"><path d="M51 88.692h12.6v5.184c0 1.116-.18 2.07-.54 2.862-.36.804-.876 1.422-1.548 1.854-.672.432-1.47.648-2.394.648-.924 0-1.722-.216-2.394-.648-.672-.432-1.188-1.05-1.548-1.854-.36-.792-.54-1.746-.54-2.862v-3.888l1.098 1.044H51v-2.34zm4.482 2.34l1.134-1.044v3.78c0 1.032.216 1.806.648 2.322.444.528 1.062.792 1.854.792.804 0 1.422-.264 1.854-.792.432-.516.648-1.29.648-2.322v-3.78l1.152 1.044h-7.29zM51 101.862l12.6 5.67v2.304L51 115.524v-2.448l11.358-4.878v.936L51 104.274v-2.412zm2.916 2.61l1.836.63v6.804l-1.836.63v-8.064zM51 119.826h12.6v2.34H51v-2.34zm0 8.448h12.6v1.926l-9.702 7.902v-.954H63.6v2.322H51v-1.926l9.702-7.902v.954H51v-2.322zm0 19.829h10.62v-4.176h1.98v10.692h-1.98v-4.176H51v-2.34z"/><path opacity=".5" d="M51 57.692h12.6v5.184c0 1.116-.18 2.07-.54 2.862-.36.804-.876 1.422-1.548 1.854-.672.432-1.47.648-2.394.648-.924 0-1.722-.216-2.394-.648-.672-.432-1.188-1.05-1.548-1.854-.36-.792-.54-1.746-.54-2.862v-3.888l1.098 1.044H51v-2.34zm4.482 2.34l1.134-1.044v3.78c0 1.032.216 1.806.648 2.322.444.528 1.062.792 1.854.792.804 0 1.422-.264 1.854-.792.432-.516.648-1.29.648-2.322v-3.78l1.152 1.044h-7.29z"/><path opacity=".2" d="M51 29.692h12.6v5.184c0 1.116-.18 2.07-.54 2.862-.36.804-.876 1.422-1.548 1.854-.672.432-1.47.648-2.394.648-.924 0-1.722-.216-2.394-.648-.672-.432-1.188-1.05-1.548-1.854-.36-.792-.54-1.746-.54-2.862v-3.888l1.098 1.044H51v-2.34zm4.482 2.34l1.134-1.044v3.78c0 1.032.216 1.806.648 2.322.444.528 1.062.792 1.854.792.804 0 1.422-.264 1.854-.792.432-.516.648-1.29.648-2.322v-3.78l1.152 1.044h-7.29z"/><path opacity=".1" d="M51 1.692h12.6v5.184c0 1.116-.18 2.07-.54 2.862-.36.804-.876 1.422-1.548 1.854-.672.432-1.47.648-2.394.648-.924 0-1.722-.216-2.394-.648-.672-.432-1.188-1.05-1.548-1.854-.36-.792-.54-1.746-.54-2.862V2.988l1.098 1.044H51v-2.34zm4.482 2.34l1.134-1.044v3.78c0 1.032.216 1.806.648 2.322.444.528 1.062.792 1.854.792.804 0 1.422-.264 1.854-.792.432-.516.648-1.29.648-2.322v-3.78l1.152 1.044h-7.29z"/><rect x="52" y="186" width="12" height="12" rx="6" fill="#D2286F"/></svg>

<svg width="115" height="198" viewBox="0 0 115 198" xmlns="http://www.w3.org/2000/svg">
<path d="M51 88.692L63.6 88.692L63.6 93.876C63.6 94.992 63.42 95.946 63.06 96.738C62.7 97.542 62.184 98.16 61.512 98.592C60.84 99.024 60.042 99.24 59.118 99.24C58.194 99.24 57.396 99.024 56.724 98.592C56.052 98.16 55.536 97.542 55.176 96.738C54.816 95.946 54.636 94.992 54.636 93.876L54.636 89.988L55.734 91.032L51 91.032L51 88.692ZM55.482 91.032L56.616 89.988L56.616 93.768C56.616 94.8 56.832 95.574 57.264 96.09C57.708 96.618 58.326 96.882 59.118 96.882C59.922 96.882 60.54 96.618 60.972 96.09C61.404 95.574 61.62 94.8 61.62 93.768L61.62 89.988L62.772 91.032L55.482 91.032ZM51 101.862L63.6 107.532L63.6 109.836L51 115.524L51 113.076L62.358 108.198L62.358 109.134L51 104.274L51 101.862ZM53.916 104.472L55.752 105.102L55.752 111.906L53.916 112.536L53.916 104.472ZM51 119.826L63.6 119.826L63.6 122.166L51 122.166L51 119.826ZM51 128.274L63.6 128.274L63.6 130.2L53.898 138.102L53.898 137.148L63.6 137.148L63.6 139.47L51 139.47L51 137.544L60.702 129.642L60.702 130.596L51 130.596L51 128.274ZM51 148.103L61.62 148.103L61.62 143.927L63.6 143.927L63.6 154.619L61.62 154.619L61.62 150.443L51 150.443L51 148.103Z"/>
<path opacity="0.5" d="M51 57.692L63.6 57.692L63.6 62.876C63.6 63.992 63.42 64.946 63.06 65.738C62.7 66.542 62.184 67.16 61.512 67.592C60.84 68.024 60.042 68.24 59.118 68.24C58.194 68.24 57.396 68.024 56.724 67.592C56.052 67.16 55.536 66.542 55.176 65.738C54.816 64.946 54.636 63.992 54.636 62.876L54.636 58.988L55.734 60.032L51 60.032L51 57.692ZM55.482 60.032L56.616 58.988L56.616 62.768C56.616 63.8 56.832 64.574 57.264 65.09C57.708 65.618 58.326 65.882 59.118 65.882C59.922 65.882 60.54 65.618 60.972 65.09C61.404 64.574 61.62 63.8 61.62 62.768L61.62 58.988L62.772 60.032L55.482 60.032Z"/>
<path opacity="0.2" d="M51 29.692L63.6 29.692L63.6 34.876C63.6 35.992 63.42 36.946 63.06 37.738C62.7 38.542 62.184 39.16 61.512 39.592C60.84 40.024 60.042 40.24 59.118 40.24C58.194 40.24 57.396 40.024 56.724 39.592C56.052 39.16 55.536 38.542 55.176 37.738C54.816 36.946 54.636 35.992 54.636 34.876L54.636 30.988L55.734 32.032L51 32.032L51 29.692ZM55.482 32.032L56.616 30.988L56.616 34.768C56.616 35.8 56.832 36.574 57.264 37.09C57.708 37.618 58.326 37.882 59.118 37.882C59.922 37.882 60.54 37.618 60.972 37.09C61.404 36.574 61.62 35.8 61.62 34.768L61.62 30.988L62.772 32.032L55.482 32.032Z"/>
<path opacity="0.1" d="M51 1.692L63.6 1.692L63.6 6.876C63.6 7.992 63.42 8.946 63.06 9.738C62.7 10.542 62.184 11.16 61.512 11.592C60.84 12.024 60.042 12.24 59.118 12.24C58.194 12.24 57.396 12.024 56.724 11.592C56.052 11.16 55.536 10.542 55.176 9.738C54.816 8.946 54.636 7.992 54.636 6.876L54.636 2.988L55.734 4.032L51 4.032L51 1.692ZM55.482 4.032L56.616 2.988L56.616 6.768C56.616 7.8 56.832 8.574 57.264 9.09C57.708 9.618 58.326 9.882 59.118 9.882C59.922 9.882 60.54 9.618 60.972 9.09C61.404 8.574 61.62 7.8 61.62 6.768L61.62 2.988L62.772 4.032L55.482 4.032Z"/>
<rect x="52" y="186" width="12" height="12" rx="6" fill="#D2286F"/>
</svg>
